!!!COA:	Josquin des Prez
!!!CDT:	~1450-1521/08/27
!!!OTL@@LAT:	Stetit autem Salomon
!!!OTL2@@LAT:	Benedic, Domine
!!!AGN:	Motet
!!!SCT:	NJE 14.14
!!!SCA:	New Josquin Edition 14.14
!!!voices:	4
**kern	**kern	**kern	**kern
*staff4	*staff3	*staff2	*staff1
*Ivox	*Ivox	*Ivox	*Ivox
*I"Bassus	*I"Tenor	*I"Altus	*I"Superius
*I'B	*I'T	*I'A	*I'S
*>[A,B]	*>[A,B]	*>[A,B]	*>[A,B]
*>Part1[A]	*>Part1[A]	*>Part1[A]	*>Part1[A]
*>Part2[B]	*>Part2[B]	*>Part2[B]	*>Part2[B]
*>A	*>A	*>A	*>A
*clefF4	*clefGv2	*clefGv2	*clefG2
*k[]	*k[]	*k[]	*k[]
*M2/1	*M2/1	*M2/1	*M2/1
*met(C|)	*met(C|)	*met(C|)	*met(C|)
=1-	=1-	=1-	=1-
0r	0r	0r	0g
=2	=2	=2	=2
0r	0r	0r	1e
.	.	.	1f
=3	=3	=3	=3
0r	0r	0c	1.g
.	.	.	2e/
=4	=4	=4	=4
0r	0r	1A	2f/
.	.	.	2e/
.	.	1B	1d
=5	=5	=5	=5
0r	0r	1c	2c/
.	.	.	2g/
.	.	2c\	2g/
.	.	4d\	2g/
.	.	4e\	.
=6	=6	=6	=6
0r	0r	2f\	2a/
.	.	2e\	2g/
.	.	1d	2a/
.	.	.	2b\
=7	=7	=7	=7
0r	0r	2c\	2cc\
.	.	2c\	4b\
.	.	.	4a/
.	.	2c\	2.g/
.	.	2c\	.
.	.	.	4a/
=8	=8	=8	=8
0r	0r	2d\	2b\
.	.	2c\	1a
.	.	2d\	.
.	.	2e\	2g/
=9	=9	=9	=9
0r	1r	1f	1a
.	2r	2e\	1g
.	2G/	2d\	.
=10	=10	=10	=10
0r	2G/	2.g\	2r
.	2G/	.	2b\
.	.	4f\	.
.	2A/	4e\	2cc\
.	.	4d\	.
.	2G/	[2e\	2b\
=11	=11	=11	=11
1r	2A/	2e\]	2cc\
.	2B\	2d\	4b\
.	.	.	4a/
2r	1c	1e	[1g
2C/	.	.	.
=12	=12	=12	=12
2C/	1c	2r	1g]
2C/	.	2e\	.
2D\	2A/	2f\	1r
2C/	2c\	2e\	.
=13	=13	=13	=13
2D\	2B\	2f\	1r
2E\	2B\	4e\	.
.	.	4d\	.
1F	[1A	[1c	2r
.	.	.	2f/
=14	=14	=14	=14
2r	2A/]	1c]	2e/
2F\	2A/	.	2f/
2E\	2G/	2r	2g/
[2D\	2A/	2d\	[2f/
=15	=15	=15	=15
2D\]	2B\	2f\	4f/]
.	.	.	4e/
2C/	2c\	2e\	1g
1D	1A	[1d	.
.	.	.	2f#i/
=16	=16	=16	=16
1GG	[0G	2d\]	1g
.	.	2d\	.
1r	.	2B\	2.g/
.	.	2d\	.
.	.	.	4f/
=17	=17	=17	=17
1C	1G]	2.c\	4e/
.	.	.	4d/
.	.	.	1g
.	.	4B\	.
2D\	1r	1A	.
2D\	.	.	2f#i/
=18	=18	=18	=18
1E	1G	0r	1g
2D\	2A/	.	1r
2F\	2A/	.	.
=19	=19	=19	=19
2E\	1B	0r	0r
1D	.	.	.
.	1A	.	.
4C/	.	.	.
4BB/	.	.	.
=20	=20	=20	=20
1AA	1c	0r	0r
2GG/	2B\	.	.
[2G\	2G/	.	.
=21	=21	=21	=21
2G\]	1A	0r	0r
2F\	.	.	.
2G\	1G	.	.
[2C/	.	.	.
=22	=22	=22	=22
2C/]	2r	0r	0r
1G	2G/	.	.
.	[1d	.	.
4F\	.	.	.
4E\	.	.	.
=23	=23	=23	=23
2F\	2d\]	0r	0r
2G\	4c\	.	.
.	4B\	.	.
2E\	2c\	.	.
[2F\	[2d\	.	.
=24	=24	=24	=24
4F\]	2d\]	1c	0r
4C/	.	.	.
2E\	1c	.	.
1D	.	2d\	.
.	2B\	2d\	.
=25	=25	=25	=25
1C	1c	1e	1g
1r	1r	2d\	2a/
.	.	2f\	2a/
=26	=26	=26	=26
0r	0r	2e\	1b
.	.	1d	.
.	.	.	1a
.	.	4c\	.
.	.	4B\	.
=27	=27	=27	=27
0r	1r	4A/	1cc
.	.	4G/	.
.	.	2A/	.
.	1G	2G/	2b\
.	.	[2g\	2g/
=28	=28	=28	=28
1D	1.d	2g\]	1a
.	.	2f#i\	.
2.G\	.	1g	[1g
.	4c\	.	.
4F\	4B\	.	.
=29	=29	=29	=29
2E\	2c\	2r	2g/]
2D\	2d\	2d\	2f/
1E	2B\	2.g\	1e
.	[2c\	.	.
.	.	4f\	.
=30	=30	=30	=30
2C/	2c\]	2e\	2r
2F\	2A/	2d\	2d/
2.E\	2B\	1e	2.g/
.	2G/	.	.
4D\	.	.	4f/
=31	=31	=31	=31
2C/	1.G	2r	2e/
2GG/	.	2B\	2d/
2C/	.	2c\	2e/
2G\	2B\	[2d\	2d/
=32	=32	=32	=32
4F\	2A/	4d\]	2f/
4E\	.	4c\	.
4D\	1G	1c	2e/
4C/	.	.	.
1D	.	.	1f
.	2F/	2B\	.
=33	=33	=33	=33
1C	1G	1c	0e
1r	1r	1r	.
=34	=34	=34	=34
1C	0G	0c	0e
[1C	.	.	.
=35	=35	=35	=35
2C/]	1.G	1.c	1.e
2C/	.	.	.
1C	.	.	.
.	2G/	2d\	2f/
=36	=36	=36	=36
1C	1G	1e	1g
1C	1c	1e	1g
=37	=37	=37	=37
2F\	1c	2.f\	2.a/
2A\	.	.	.
.	.	4e\	4cc\
2G\	1d	2g\	2b\
2D\	.	[2f\	[2a/
=38	=38	=38	=38
2F\	2c\	2f\]	4a/]
.	.	.	4g/
2G\	2B\	2e\	1g
1D	1A	1d	.
.	.	.	2f#i/
=39	=39	=39	=39
0GG	[0G	2r	[0g
.	.	1d	.
.	.	2d\	.
=40	=40	=40	=40
2r	1G]	2c\	0g]
1G	.	2B\	.
.	1r	1d	.
2G\	.	.	.
=41	=41	=41	=41
2F\	0r	2r	2r
2E\	.	1e	1g
1G	.	.	.
.	.	[2d\	2g/
=42	=42	=42	=42
1A	1r	2d\]	2f/
.	.	2c\	2e/
1G	2r	1d	2.g/
.	[2G/	.	.
.	.	.	4f/
=43	=43	=43	=43
1r	2G/]	1B	2d/
.	2G/	.	2e/
2r	2F/	[1c	2f/
[2C/	2E/	.	[2g/
=44	=44	=44	=44
2C/]	1.G	1c]	4g/]
.	.	.	4f/
2C/	.	.	2e/
2BB/	.	2r	2d/
2AA/	[2A/	[2c\	2c/
=45	=45	=45	=45
1C	2A/]	2c\]	1e
.	1G	2c\	.
1D	.	2B\	1r
.	2F/	2A/	.
=46	=46	=46	=46
2C/	1G	2.c\	0r
2C/	.	.	.
.	.	4B\	.
2FF/	2F/	4A/	.
.	.	4G/	.
[2C/	[2E/	[2A/	.
=47	=47	=47	=47
4C/]	2E/]	2A/]	1r
4BB/	.	.	.
4AA/	1D	1G	.
4GG/	.	.	.
1AA	.	.	1cc
.	2C/	2F#i/	.
=48	=48	=48	=48
1GG	2D/	1G	1b
.	2G/	.	.
1r	2F/	2r	1a
.	[2D/	2d\	.
=49	=49	=49	=49
0r	4D/]	1f	2r
.	4E/	.	.
.	4F/	.	2a/
.	4G/	.	.
.	1A	2e\	1cc
.	.	2c\	.
=50	=50	=50	=50
0r	2G/	2d\	2b\
.	2E/	2e\	2g/
.	2F/	2A/	2a/
.	2G/	[2e\	2b\
=51	=51	=51	=51
0r	1A	2e\]	1e
.	.	4d\	.
.	.	4c\	.
.	1r	2B\	2d/
.	.	2G/	[2g/
=52	=52	=52	=52
1r	0r	2.c\	4g/]
.	.	.	4f/
.	.	.	4e/
.	.	4B\	4d/
1F	.	4A/	2.c/
.	.	4G/	.
.	.	[2c\	.
.	.	.	4d/
=53	=53	=53	=53
1E	0r	4c\]	4e/
.	.	4B\	4f/
.	.	4A/	1g
.	.	4G/	.
1D	.	1A	.
.	.	.	2f#i/
=54	=54	=54	=54
2r	1r	0G	0g
2E\	.	.	.
1G	1B	.	.
=55	=55	=55	=55
1G	1.d	0r	0r
2F\	.	.	.
2D\	2d\	.	.
=56	=56	=56	=56
2.F\	2c\	0r	1r
.	2A/	.	.
4G\	.	.	.
1A	2.c\	.	2r
.	.	.	2e/
.	4d\	.	.
=57	=57	=57	=57
4G\	2e\	0r	1.g
4F\	.	.	.
4E\	1d	.	.
4D\	.	.	.
1E	.	.	.
.	2c#i\	.	2g/
=58	=58	=58	=58
1D	1d	2r	2f/
.	.	2A/	2d/
1D	2r	2.d\	2.f/
.	2A/	.	.
.	.	4e\	4g/
=59	=59	=59	=59
1D	2d\	2f\	2.a/
.	2d\	2f\	.
.	.	.	4b\
1A	1c	2e\	1cc
.	.	2c\	.
=60	=60	=60	=60
2G\	2r	2d\	2.b\
4F\	2G/	2e\	.
4E\	.	.	4cc\
1D	2A/	1f	4dd\
.	.	.	4cc\
.	2B\	.	4b\
.	.	.	4a/
=61	=61	=61	=61
2r	2c\	2e\	1g
2C/	2e\	2g\	.
2D\	2d\	2f\	2r
2E\	[2c\	2e\	2g/
=62	=62	=62	=62
2F\	2c\]	1d	2a/
2G\	2B\	.	2g/
1C	1c	[1c	[1e
=63	=63	=63	=63
2r	2r	1c]	1e]
2C/	2G/	.	.
2AA/	2A/	1r	1r
2BB/	2G/	.	.
=64	=64	=64	=64
1C	1E	2r	2r
.	.	2c\	2g/
1r	1r	2A/	2a/
.	.	2B\	2g/
=65	=65	=65	=65
0r	0r	1c	2e/
.	.	.	1a
.	.	1d	.
.	.	.	4g/
.	.	.	4f/
=66	=66	=66	=66
0r	0r	2c\	2g/
.	.	2f\	2a/
.	.	2e\	2g/
.	.	[2d\	[2f/
=67	=67	=67	=67
0r	1r	4d\]	4f/]
.	.	4c\	4e/
.	.	1c	4d/
.	.	.	4c/
.	1G	.	1d
.	.	2B\	.
=68	=68	=68	=68
2r	1.A	1c	1c
2F\	.	.	.
2F\	.	[1c	1r
2E\	2G/	.	.
=69	=69	=69	=69
2.F\	2.A/	1c]	2r
.	.	.	2f/
4G\	4B\	.	.
1A	1c	2r	2f/
.	.	2c\	2e/
=70	=70	=70	=70
1.F	0r	2c\	2.f/
.	.	2A/	.
.	.	.	4g/
.	.	2.c\	1a
4E\	.	.	.
4D\	.	4d\	.
=71	=71	=71	=71
2.C/	2r	1.e	0r
.	2G/	.	.
4D\	.	.	.
2E\	2G/	.	.
2D\	2A/	2f\	.
=72	=72	=72	=72
1G	1B	2e\	0r
.	.	1d	.
2G\	2B\	.	.
2C/	[2A/	2c\	.
=73	=73	=73	=73
2D\	4A/]	2B\	0r
.	4G/	.	.
2E\	1G	4A/	.
.	.	4G/	.
1D	.	1A	.
.	2F#i/	.	.
=74	=74	=74	=74
1GG	2.G/	4G/	2r
.	.	4A/	.
.	.	4B\	2g/
.	4A/	4c\	.
2G\	2B\	4d\	2g/
.	.	4e\	.
2F\	2c\	2f\	2a/
=75	=75	=75	=75
1.G	2B\	2d\	2.b\
.	1d	2.g\	.
.	.	.	4cc\
.	.	.	2b\
.	.	4f\	.
2A\	[2c\	2e\	[2a/
=76	=76	=76	=76
2F\	4c\]	2f\	4a/]
.	4B\	.	4g/
2G\	4A/	2d\	1g
.	4G/	.	.
1D	1A	1d	.
.	.	.	2f#i/
=77	=77	=77	=77
*M3/1	*M3/1	*M3/1	*M3/1
*met(3)	*met(3)	*met(3)	*met(3)
0GG	0G	0d	0g
1r	1r	1r	1r
=78	=78	=78	=78
1GG	1G	1d	1g
1GG	1B	1d	1g
1D	1A	1d	1a
=79	=79	=79	=79
0GG	0.G	0d	0b
1C	.	1e	1cc
=80	=80	=80	=80
1E	1G	1g	1b
1F	1A	0d	1.a
1G	1B	.	.
.	.	.	2g/
=81	=81	=81	=81
1E	1G	1c	0g
0D	0A	0d	.
.	.	.	1f#i
=82	=82	=82	=82
0.GGl	0.Gl	0.dl	0.gl
!!LO:LB:i:g=z
=83||	=83||	=83||	=83||
*>B	*>B	*>B	*>B
!!section: Secunda pars: Benedic, Domine
!!!OMD: Secunda pars: Benedic, Domine
*M2/1	*M2/1	*M2/1	*M2/1
*met(C|)	*met(C|)	*met(C|)	*met(C|)
1G	1G	0r	0r
2G\	2G/	.	.
2E\	2G/	.	.
=84	=84	=84	=84
2F\	2A/	1r	1r
2G\	2B\	.	.
1C	[1c	1g	1g
=85	=85	=85	=85
0r	1c]	2g\	2g/
.	.	2e\	2g/
.	1r	2f\	2a/
.	.	2g\	2b\
=86	=86	=86	=86
0r	0r	1c	1.cc
.	.	1f	.
.	.	.	4b\
.	.	.	4a/
=87	=87	=87	=87
0r	0r	2e\	2g/
.	.	1d	2a/
.	.	.	2f/
.	.	4c\	4e/
.	.	4B\	4d/
=88	=88	=88	=88
2r	0r	2A/	2c/
2G\	.	4G/	1d
.	.	4A/	.
2G\	.	4B\	.
.	.	4G/	.
2E\	.	[2c\	2e/
=89	=89	=89	=89
2F\	2r	2c\]	1d
2G\	2G/	2B\	.
1C	2G/	[1c	[1c
.	2G/	.	.
=90	=90	=90	=90
2r	2.A/	1c]	1c]
1F	.	.	.
.	4B\	.	.
.	1c	1r	1r
2F\	.	.	.
=91	=91	=91	=91
2E\	1c	0r	0r
2C/	.	.	.
1E	2B\	.	.
.	2G/	.	.
=92	=92	=92	=92
2D\	1A	0r	0r
2F\	.	.	.
2G\	2B\	.	.
[2A\	[2c\	.	.
=93	=93	=93	=93
4A\]	4c\]	2r	0r
4G\	4B\	.	.
1G	4A/	1c	.
.	4G/	.	.
.	1A	.	.
2F#i\	.	2c\	.
=94	=94	=94	=94
0G	2G/	2B\	0r
.	1.d	2G/	.
.	.	1B	.
=95	=95	=95	=95
1C	1c	2A/	2r
.	.	2.c\	1g
2G\	2B\	.	.
.	.	4d\	.
2C/	2c\	[2e\	2g/
=96	=96	=96	=96
1D	1A	4e\]	2f/
.	.	4d\	.
.	.	1d	2d/
1AA	2r	.	1e
.	[2A/	2c#i\	.
=97	=97	=97	=97
1D	2A/]	[0d	2d/
.	2A/	.	2f/
2G\	2B\	.	2g/
2F\	2A/	.	[2a/
=98	=98	=98	=98
2G\	2B\	0d]	4a/]
.	.	.	4g/
2GG/	2G/	.	1g
1D	1A	.	.
.	.	.	2f#i/
=99	=99	=99	=99
1GG	1G	1B	1g
2r	2r	2r	2r
[2C/	[2G/	[2c\	[2e/
=100	=100	=100	=100
2C/]	2G/]	2c\]	2e/]
2C/	2G/	2c\	2e/
2AA/	2A/	2c\	2e/
2C/	2G/	2c\	2e/
=101	=101	=101	=101
1C	1G	1c	1e
1r	1r	1c	[1g
=102	=102	=102	=102
0r	0r	2B\	2g/]
.	.	2A/	1a
.	.	2.c\	.
.	.	.	4g/
.	.	4d\	4f/
=103	=103	=103	=103
0r	0r	2e\	2g/
.	.	2.f\	2.a/
.	.	4e\	4g/
.	.	4d\	4f/
.	.	4c\	4e/
=104	=104	=104	=104
1r	1r	1d	1f
1C	[1G	1c	1e
=105	=105	=105	=105
2BB/	2G/]	0r	0r
2AA/	2A/	.	.
2.C/	2.A/	.	.
4D\	8G/L	.	.
.	8F/J	.	.
=106	=106	=106	=106
2E\	2G/	1r	0r
2.F\	2.A/	.	.
.	.	1A	.
4E\	4G/	.	.
4D\	4F/	.	.
4C/	4E/	.	.
=107	=107	=107	=107
1D	1F	2A/	1r
.	.	2B\	.
1C	1E	1c	1e
=108	=108	=108	=108
0r	0r	2A/	2e/
.	.	2d\	2f/
.	.	2B\	1g
.	.	[2c\	.
=109	=109	=109	=109
0r	0r	2c\]	2e/
.	.	4B\	2a/
.	.	4A/	.
.	.	2B\	2.g/
.	.	[2c\	.
.	.	.	4f/
=110	=110	=110	=110
1r	0r	4c\]	4e/
.	.	4B\	4d/
.	.	2.A/	2.f/
1AA	.	.	.
.	.	4G/	4e/
.	.	4F/	[2e/
.	.	4E/	.
=111	=111	=111	=111
2AA/	1r	1F	2e/]
2BB/	.	.	2d/
2.C/	1E	2E/	1e
.	.	2G/	.
4BB/	.	.	.
=112	=112	=112	=112
2AA/	2E/	2A/	1r
2D\	2F/	2B\	.
2.C/	1G	1c	2r
.	.	.	2c/
4BB/	.	.	.
=113	=113	=113	=113
2GG/	1G	2B\	2d/
2C/	.	1.c	2e/
1FF	1A	.	1f
=114	=114	=114	=114
1.C	2.G/	2.c\	2.e/
.	4F/	4B\	4d/
.	2E/	2A/	4c/
.	.	.	4B/
2BB/	2D/	[2G/	[2d/
=115	=115	=115	=115
1AA	2E/	2G/]	4d/]
.	.	.	4c/
.	2C/	2F/	1c
1GG	1D	1G	.
.	.	.	2B/
=116	=116	=116	=116
[0C	1C	0G	0c
.	2r	.	.
.	2G/	.	.
=117	=117	=117	=117
0C]	2A/	0r	0r
.	1c	.	.
.	2c\	.	.
=118	=118	=118	=118
0r	2B\	0r	1g
.	2B\	.	.
.	1A	.	2a/
.	.	.	[2cc\
=119	=119	=119	=119
0r	2.A/	0r	2cc\]
.	.	.	2cc\
.	4B\	.	.
.	2c\	.	2cc\
.	[2d\	.	2b\
=120	=120	=120	=120
0r	4d\]	0r	1a
.	4c\	.	.
.	1c	.	.
.	.	.	2.g/
.	4B\	.	.
.	4A/	.	4f/
=121	=121	=121	=121
0r	2B\	0r	2g/
.	2.c\	.	2.a/
.	4B\	.	4g/
.	4A/	.	[2g/
.	4G/	.	.
=122	=122	=122	=122
1D	1A	0r	2g/]
.	.	.	2f#i/
2E\	1G	.	[1g
[2G\	.	.	.
=123	=123	=123	=123
2G\]	0r	1G	1g]
2G\	.	.	.
2F\	.	2A/	1r
2E\	.	[2c\	.
=124	=124	=124	=124
2.F\	0r	2c\]	0r
.	.	2c\	.
4A\	.	.	.
2G\	.	2B\	.
2F\	.	2A/	.
=125	=125	=125	=125
2E\	0r	2B\	0r
2D\	.	2.d\	.
2.G\	.	.	.
.	.	4c\	.
.	.	4B\	.
4F\	.	4A/	.
=126	=126	=126	=126
4E\	0r	2G/	0r
4D\	.	.	.
2C/	.	2c\	.
2.G\	.	2d\	.
.	.	2e\	.
4E\	.	.	.
=127	=127	=127	=127
2F\	1r	2c\	2r
2E\	.	2.e\	1g
2.C/	1G	.	.
.	.	4d\	.
.	.	[2c\	2e/
4E\	.	.	.
=128	=128	=128	=128
0D	1A	2c\]	1f
.	.	4B\	.
.	.	4A/	.
.	1F	1B	1d
=129	=129	=129	=129
1C	1G	[0c	0e
2r	2r	.	.
2C/	2G/	.	.
=130	=130	=130	=130
2E\	2G/	1c]	2r
2F\	2A/	.	2a/
[1G	2.B\	1r	2.g/
.	4c\	.	4a/
=131	=131	=131	=131
2G\]	2d\	2r	2b\
2E\	1e	1g	2b\
1A	.	.	1cc
.	4d\	2f\	.
.	4c\	.	.
=132	=132	=132	=132
2G\	2d\	1g	1b
2E\	2e\	.	.
2F\	2c\	1f	1a
2D\	2d\	.	.
=133	=133	=133	=133
2E\	2B\	2.e\	1g
2C/	2c\	.	.
.	.	4d\	.
2.F\	2A/	2c\	2f/
.	[2c\	2f\	[2a/
4E\	.	.	.
=134	=134	=134	=134
2C/	4c\]	2e\	2a/]
.	4B\	.	.
2E\	4A/	2c\	1g
.	4G/	.	.
1D	1A	1d	.
.	.	.	2f#i/
=135	=135	=135	=135
*M3/1	*M3/1	*M3/1	*M3/1
*met(3)	*met(3)	*met(3)	*met(3)
0GG	0G	0d	0g
1r	1r	1r	1r
=136	=136	=136	=136
1GG	1G	1d	1g
1GG	1B	1d	1g
1D	1A	1d	1a
=137	=137	=137	=137
0GG	0.G	0d	0b
1C	.	1e	1cc
=138	=138	=138	=138
1E	1G	1g	1b
1F	1A	1f	1.a
1G	1B	1d	.
.	.	.	2g/
=139	=139	=139	=139
1E	1G	1c	0g
0D	0A	0d	.
.	.	.	1f#i
=140	=140	=140	=140
*M2/1	*M2/1	*M2/1	*M2/1
*met(C|)	*met(C|)	*met(C|)	*met(C|)
0E	0G	1B	1.g
.	.	1c	.
.	.	.	4f#i/
.	.	.	4e/
=141	=141	=141	=141
0D	0A	0d	0f#i
=142	=142	=142	=142
0GGl	0Gl	0dl	0gl
==	==	==	==
*-	*-	*-	*-
!!!RDF**kern: l=long note in original notation
!!!RDF**kern: i=editorial accidental
!!!ENC:	Will Watson 13/07/2011
!!!END:	2011/07/13/
!!!EED:	Jesse Rodin
!!!EEV:	2011/10/25/
!!attribution-level@Jos: 4 (questionable)
!!!ONB:	Translated from MusicXML and edited on 2011/10/25/ by Craig Sapp
!!muse2ps: C^@{COM}{/}@{COA}?\n@{SCT}^u^(2) @{OTL2}^i2I150v90,90,90,150Q16
